KINDER
CUT[ALS ICH AUF DEN KIRCHHOF KAM]
REG[Europa, Mitteleuropa, Deutschland, Moseltal]
KEY[K2222  16  F 2/4]
MEL[-5_  1_2_3_4_  5_.65_
    5_  6_6_+1_6_  5__0_
    5_  5_.44_4_  4_.33_
    3_  3_2_3_2_  1_3_5_
    55  5_4_4_44  4_3_3_
    33  3_2_3_2_  1__0_ //] >>
FCT[Kinder - Lied, Reigen, Tanz - Spiel, Brautwerbung]
